svgs/duotone/briefcase.svg

<svg xmlns="http://www.w3.org/2000/svg" viewBox="0 0 512 512"><!--! Font Awesome Pro 6.6.0 by @fontawesome - https://fontawesome.com License - https://fontawesome.com/license (Commercial License) Copyright 2024 Fonticons, Inc. --><path class="fa-secondary" style="fill:var(--fa-secondary-color,inherit);opacity:var(--fa-secondary-opacity,.4);" d="M0 288L0 416c0 35.3 28.7 64 64 64l384 0c35.3 0 64-28.7 64-64l0-128-192 0 0 32c0 17.7-14.3 32-32 32l-64 0c-17.7 0-32-14.3-32-32l0-32L0 288z"/><path class="fa-primary" style="fill:var(--fa-primary-color,inherit);opacity:var(--fa-primary-opacity,1);" d="M384 96l80 0c25.6 0 48 22.4 48 48l0 144L0 288 0 144c0-25.6 22.4-48 48-48l80 0 0-40 0-8c0-25.6 22.4-48 48-48l8 0L328 0l8 0c25.6 0 48 22.4 48 48l0 8 0 40zm-48 0l0-40c0-4.4-3.6-8-8-8L184 48c-4.4 0-8 3.6-8 8l0 40 160 0z"/></svg>

<svg xmlns="http://www.w3.org/2000/svg" viewBox="0 0 512 512"><!--! Font Awesome Pro 6.4.2 by @fontawesome - https://fontawesome.com License - https://fontawesome.com/license (Commercial License) Copyright 2023 Fonticons, Inc. --><path class="fa-primary" style="fill:var(--fa-primary-color,inherit);opacity:var(--fa-primary-opacity,1);" d="M384 96h80c25.6 0 48 22.4 48 48V288H0V144c0-25.6 22.4-48 48-48h80V56 48c0-25.6 22.4-48 48-48h8H328h8c25.6 0 48 22.4 48 48v8V96zm-48 0V56c0-4.4-3.6-8-8-8H184c-4.4 0-8 3.6-8 8V96H336z"/><path class="fa-secondary" style="fill:var(--fa-secondary-color,inherit);opacity:var(--fa-secondary-opacity,.4);" d="M192 288H0V416c0 35.3 28.7 64 64 64H448c35.3 0 64-28.7 64-64V288H320v32c0 17.7-14.3 32-32 32H224c-17.7 0-32-14.3-32-32V288z"/></svg>
